X: 9832
T: Denmark Distortion
R: jig
M: 6/8
K: Dmixolydian
~D3 ADB-|BAB AGE|~D3 ADB|BAB AGD|
~E3 BEc-|cBc ABc|dge dcB|1 cAB AGE:|2 cBc ABc||
egf edB|cBc BAG|~A3 ABc|~A3 dBd|
egf edB|cBc BAG|1 ~A3 dAd-|dAd ABd:|2 ~A3 BAG|EDD Dz2||

